icons/default/Link.svg

<path fill-rule="evenodd" clip-rule="evenodd"
	d="M17.1522 3.98467L16.0145 2.84695C15.1518 1.98429 13.7532 1.98429 12.8905 2.84695L10.0462 5.69126C9.18355 6.55392 9.18355 7.95257 10.0462 8.81523L10.198 8.96704L8.96631 10.1988L8.8145 10.0469C7.95184 9.18429 6.55319 9.18429 5.69052 10.0469L2.84622 12.8913C1.98355 13.7539 1.98355 15.1526 2.84622 16.0152L3.98394 17.153C4.8466 18.0156 6.24525 18.0156 7.10791 17.153L9.95222 14.3086C10.8149 13.446 10.8149 12.0473 9.95222 11.1847L9.81484 11.0473L11.0466 9.81557L11.1839 9.95295C12.0466 10.8156 13.4453 10.8156 14.3079 9.95295L17.1522 7.10865C18.0149 6.24598 18.0149 4.84733 17.1522 3.98467ZM11.8951 8.96704L12.0325 9.10443C12.4265 9.49846 13.0654 9.49846 13.4594 9.10443L16.3037 6.26012C16.6977 5.86609 16.6977 5.22723 16.3037 4.8332L15.166 3.69548C14.7719 3.30144 14.1331 3.30144 13.7391 3.69548L10.8947 6.53978C10.5007 6.93382 10.5007 7.57267 10.8947 7.9667L11.0466 8.11851L11.9822 7.1829C12.2371 6.92799 12.597 6.94916 12.8307 7.1829C13.0644 7.41664 13.0856 7.77652 12.8307 8.03143L11.8951 8.96704ZM8.11778 11.0473L7.18217 11.9829C6.92726 12.2378 6.94843 12.5977 7.18217 12.8314C7.4159 13.0652 7.77579 13.0863 8.03069 12.8314L8.96631 11.8958L9.10369 12.0332C9.49773 12.4272 9.49773 13.0661 9.10369 13.4601L6.25939 16.3044C5.86535 16.6985 5.2265 16.6985 4.83247 16.3044L3.69474 15.1667C3.30071 14.7727 3.30071 14.1338 3.69474 13.7398L6.53905 10.8955C6.93308 10.5014 7.57194 10.5014 7.96597 10.8955L8.11778 11.0473Z"
	fill="#0066FF" />

<path fill-rule="evenodd" clip-rule="evenodd" d="m17.152 3.985-1.137-1.138a2.209 2.209 0 0 0-3.125 0L10.046 5.69a2.209 2.209 0 0 0 0 3.124l.152.152-1.232 1.232-.151-.152a2.21 2.21 0 0 0-3.124 0L2.846 12.89a2.209 2.209 0 0 0 0 3.124l1.138 1.138a2.21 2.21 0 0 0 3.124 0l2.844-2.844a2.209 2.209 0 0 0 0-3.124l-.137-.138 1.232-1.231.137.137a2.209 2.209 0 0 0 3.124 0l2.844-2.844a2.209 2.209 0 0 0 0-3.124Zm-5.257 4.982.138.137a1.009 1.009 0 0 0 1.426 0l2.845-2.844a1.009 1.009 0 0 0 0-1.427l-1.138-1.138a1.009 1.009 0 0 0-1.427 0L10.895 6.54a1.009 1.009 0 0 0 0 1.427l.152.152.935-.936a.583.583 0 0 1 .849 0 .583.583 0 0 1 0 .848l-.936.936Zm-3.777 2.08-.936.936a.583.583 0 0 0 0 .848.583.583 0 0 0 .849 0l.935-.935.138.137a1.009 1.009 0 0 1 0 1.427l-2.845 2.844a1.009 1.009 0 0 1-1.427 0l-1.137-1.137a1.009 1.009 0 0 1 0-1.427l2.844-2.845a1.009 1.009 0 0 1 1.427 0l.152.152Z" fill="#06F"/>
